X: 51
T: Rakish Paddy
R:reel
M:C|
K:Dmix
"Am(D7)"c3B c2AB|cBAG "C" EGFG|"D"Add^c defe|dcAG FGAB|
"Am(D7)"c3B c2AB|cBAG "C"EFGE|"D"DEFG ABcA|1"D" dcAG FGAB:|2 "D"dcAG FDD2||
|:"C"eg~g2 ag~g2|eg~g2 ed^cd|"Am"ea~a2 ba~a2|ea~a2 ed^cd|
"C"eg~g2 ag~g2|efge "D"defg|afge fde^c|1"D" dcAG FDD2:|2 "D"dcAG FGAB|]


